X:678
%%etbk:tnset id:352,pos:2,rep:3x,ant:
%%etbk:pldat 2016-05-25T17:31,2016-05-24T17:53,2015-04-08T15:27,2015-04-07T18:01
T: Sheehan's
Z: Piano Box Version by Martin Fleischmann
H: Created 2015-04-07 /  Last Modified 2016-05-25
R: reel
M: 4/4
L: 1/8
K: Gmaj
|:"G"!2!G2!4!BG DGBG|"D"!3!ABcA "G"BGGB|"am"!3!AEAB !5!cBcA|"C"!1!E!5!AAG "D"FDE!3!F|
"G"!1!G2!3!B!2!G !1!D!2!G!3!B!5!d|"C"!3!cBAB !3!c!1!d!2!ef|"G"!4!ge!1!d!2!B "C"c2Bc|"D"!4!dBcA "G"!2!B!1!GG2:|
|:"G"!3!g2bg dgbg|!3!gbag fdde|"D"!2!f2af dfa!2!f|!3!gbag f!1!d!1!e!2!f|
!3!g2bg dgbg|gbag fde!3!f|!4!(3gfe !1!d!2!B c2Bc|dBcA BGG2:||


